!!!OTL: Der Jaeger
!!!ARE: Europa, Mitteleuropa, Deutschland
!!!SCT: A0436
!!!YEM: Copyright 1995, estate of Helmut Schaffrath.
**kern
*ICvox
*Ivox
*M4/2
*k[b-]
*F:
{2f
2a
2b-
=1
2cc
2dd
1cc
=2
2.a
4b-}
{2cc
[2dd
=3
2dd]
2cc
1b-
=4
0a
=5
2r}
{2cc
2cc
2cc
=6
2cc
2dd
1b-
=7
1cc}
{1cc
=8
1dd
2cc
[2b-
=9
2b-]
2a
1g
=10
0f
=11
2r}
==
!!!AGN: Romanze, Ballade, Lied, Jaegerlied
!! Gassenhawerlein 1535 No. 7.
!!!ONB: ESAC (Essen Associative Code) Database: ALTDEU
!!!AMT: simple quadruple
!!!AIN: vox
!!!EED: Helmut Schaffrath
!!!EEV: 1.0
*-
